Front/static/img/kkutu/logo.svg

<svg fill="none" viewBox="0 0 598 108"><path fill="#8B5CF6" d="M0 44h40v20H0z"/><path fill="#A78BFA" d="M35 108l5-32V44h20v32l-5 32H35z"/><path fill="#3B82F6" d="M123 64H83V44h40z"/><path fill="#60A5FA" d="M77 0l6 32v32H63V32L57 0h20z"/><path fill="#334155" d="M237.216 41.624c-12.384.384-62.688.384-74.016 0-.288-3.936-.288-7.392 0-11.136 2.4-.096 6.816-.096 12.192-.192v-6.72c-4.896-.096-8.832-.096-11.232-.192-.288-3.744-.288-7.584 0-11.136 15.936-.288 63.168-.384 72.096 0 .192 3.552.192 6.912 0 11.136-2.496.096-6.528.096-11.328.192v6.72c5.376.096 9.696.096 12.288.192.288 3.744.288 6.72 0 11.136zm-47.712-17.952v6.624c6.912-.096 14.4-.096 21.312-.096v-6.528h-21.312zm51.936 21.696c.384 3.36.384 7.488 0 11.232-8.256.576-71.232.384-82.56 0-.384-3.264-.384-7.68 0-11.232 19.968-.384 73.536-.192 82.56 0zM178.656 84.44v3.072h59.424c.384 3.168.192 7.584 0 10.656-6.24.48-61.632.576-73.92 0-.384-5.28-.576-15.072 0-23.904h57.216v-3.072h-57.024c-.384-3.168-.384-8.544 0-10.752 27.936-.288 59.712-.288 71.52 0 .48 3.744.48 19.872 0 24h-57.216zm148.217-72.96c.384 13.152.384 74.976 0 86.4-2.976.384-11.04.288-14.4 0-.192-5.184-.288-22.08-.288-39.648-5.568 0-10.944-.096-12.672-.288-.384-3.648-.384-9.984 0-13.632 2.304-.096 7.584-.192 12.768-.192 0-14.88.096-28.128.192-32.64 2.592-.576 11.04-.48 14.4 0zm-61.536 67.104c8.544-.288 27.648-.192 35.712 0 .384 3.648.384 9.216 0 12.864-5.952.288-41.76.384-50.496 0-.672-11.328-.576-33.984 0-45.024 6.528-.192 23.712-.096 28.992 0 0-5.376 0-14.592.096-19.392-6.048.096-22.56.192-28.704 0-.384-3.648-.384-9.216 0-12.864 6.047-.384 36.864-.384 43.392 0 .671 11.232.576 33.984 0 45.024-6.528.384-19.488.096-28.896 0 0 5.376 0 14.592-.096 19.392zm82.264-9.312c-2.112-1.536-7.872-7.584-9.408-10.56 7.488-6.72 20.736-18.144 30.816-26.976-.096-7.584 0-13.44.192-17.856 2.592-.288 11.808-.384 15.168 0 .192 4.992.288 10.848.192 17.952 10.272 8.544 23.712 19.584 31.296 26.016-1.536 2.976-7.104 9.216-9.12 10.848-5.184-4.128-19.008-15.072-29.76-24.672-10.656 9.792-24.096 21.12-29.376 25.248zm70.464 13.824c.384 3.552.384 8.448 0 12.48-8.256.576-71.232.384-82.56 0-.384-3.456-.384-8.736 0-12.48 19.968-.384 73.536-.192 82.56 0zm29.273-10.848c.096-2.784.096-41.664 0-44.832-1.824-.096-18.144-.096-20.16 0-.384-3.744-.384-8.928 0-12.48 4.8-.288 30.336-.192 33.984 0 .672 5.376.576 51.936 0 57.312-2.496.48-10.368.384-13.824 0zm38.976 0c.096-2.784.096-41.664 0-44.832-1.824-.096-18.144-.096-20.16 0-.384-3.744-.384-8.928 0-12.48 4.8-.288 30.336-.192 33.984 0 .672 5.376.576 51.936 0 57.312-2.496.48-10.368.384-13.824 0zm-62.496 23.328c-.384-3.456-.384-8.736 0-12.48 19.968-.384 73.536-.192 82.56 0 .384 3.552.384 8.448 0 12.48-8.256.576-71.232.384-82.56 0zm166.648-34.464c-7.872.384-63.648.288-73.056 0-.576-11.232-.48-36 0-47.136 9.312-.48 61.536-.288 71.136 0 .384 3.648.384 8.736 0 12.384-6.72.192-49.056.192-56.256 0 0 1.152 0 3.072-.096 5.184 12.576-.096 45.792 0 53.472 0 .384 3.648.288 8.544 0 12.192-7.392.192-40.896.096-53.472 0 .096 2.208.096 3.936.096 5.088 7.584 0 51.072-.096 58.176 0 .288 3.744.288 9.216 0 12.288zm4.224 5.856c.384 3.552.384 8.448 0 12.48-3.648.288-17.952.384-33.792.384 0 6.624 0 14.88-.096 18.528-3.168.192-10.848.192-14.688 0-.096-3.168-.192-11.616-.192-18.528-15.072-.096-28.992-.192-33.792-.384-.384-3.456-.384-8.736 0-12.48 19.968-.384 73.536-.192 82.56 0z"/></svg>

<svg width="598" height="108" viewBox="0 0 598 108" fill="none" xmlns="http://www.w3.org/2000/svg">
<rect y="44" width="40" height="20" fill="#8B5CF6"/>
<path d="M35 108L40 76L40 44H60L60 76L55 108H35Z" fill="#A78BFA"/>
<rect x="123" y="64" width="40" height="20" transform="rotate(-180 123 64)" fill="#3B82F6"/>
<path d="M77 -1.25764e-06L83 32L83 64L63 64L63 32L57 -1.01401e-05L77 -1.25764e-06Z" fill="#60A5FA"/>
<path d="M237.216 41.624C224.832 42.008 174.528 42.008 163.2 41.624C162.912 37.688 162.912 34.232 163.2 30.488C165.6 30.392 170.016 30.392 175.392 30.296V23.576C170.496 23.48 166.56 23.48 164.16 23.384C163.872 19.64 163.872 15.8 164.16 12.248C180.096 11.96 227.328 11.864 236.256 12.248C236.448 15.8 236.448 19.16 236.256 23.384C233.76 23.48 229.728 23.48 224.928 23.576V30.296C230.304 30.392 234.624 30.392 237.216 30.488C237.504 34.232 237.504 37.208 237.216 41.624ZM189.504 23.672V30.296C196.416 30.2 203.904 30.2 210.816 30.2V23.672C203.904 23.672 196.416 23.672 189.504 23.672ZM241.44 45.368C241.824 48.728 241.824 52.856 241.44 56.6C233.184 57.176 170.208 56.984 158.88 56.6C158.496 53.336 158.496 48.92 158.88 45.368C178.848 44.984 232.416 45.176 241.44 45.368ZM178.656 84.44V87.512H238.08C238.464 90.68 238.272 95.096 238.08 98.168C231.84 98.648 176.448 98.744 164.16 98.168C163.776 92.888 163.584 83.096 164.16 74.264H221.376V71.192H164.352C163.968 68.024 163.968 62.648 164.352 60.44C192.288 60.152 224.064 60.152 235.872 60.44C236.352 64.184 236.352 80.312 235.872 84.44H178.656ZM326.873 11.48C327.257 24.632 327.257 86.456 326.873 97.88C323.897 98.264 315.833 98.168 312.473 97.88C312.281 92.696 312.185 75.8 312.185 58.232C306.617 58.232 301.241 58.136 299.513 57.944C299.129 54.296 299.129 47.96 299.513 44.312C301.817 44.216 307.097 44.12 312.281 44.12C312.281 29.24 312.377 15.992 312.473 11.48C315.065 10.904 323.513 11 326.873 11.48ZM265.337 78.584C273.881 78.296 292.985 78.392 301.049 78.584C301.433 82.232 301.433 87.8 301.049 91.448C295.097 91.736 259.289 91.832 250.553 91.448C249.881 80.12 249.977 57.464 250.553 46.424C257.081 46.232 274.265 46.328 279.545 46.424C279.545 41.048 279.545 31.832 279.641 27.032C273.593 27.128 257.081 27.224 250.937 27.032C250.553 23.384 250.553 17.816 250.937 14.168C256.984 13.784 287.801 13.784 294.329 14.168C295 25.4 294.905 48.152 294.329 59.192C287.801 59.576 274.841 59.288 265.433 59.192C265.433 64.568 265.433 73.784 265.337 78.584ZM347.601 69.272C345.489 67.736 339.729 61.688 338.193 58.712C345.681 51.992 358.929 40.568 369.009 31.736C368.913 24.152 369.009 18.296 369.201 13.88C371.793 13.592 381.009 13.496 384.369 13.88C384.561 18.872 384.657 24.728 384.561 31.832C394.833 40.376 408.273 51.416 415.857 57.848C414.321 60.824 408.753 67.064 406.737 68.696C401.553 64.568 387.729 53.624 376.977 44.024C366.321 53.816 352.881 65.144 347.601 69.272ZM418.065 83.096C418.449 86.648 418.449 91.544 418.065 95.576C409.809 96.152 346.833 95.96 335.505 95.576C335.121 92.12 335.121 86.84 335.505 83.096C355.473 82.712 409.041 82.904 418.065 83.096ZM447.338 72.248C447.434 69.464 447.434 30.584 447.338 27.416C445.514 27.32 429.194 27.32 427.178 27.416C426.794 23.672 426.794 18.488 427.178 14.936C431.978 14.648 457.514 14.744 461.162 14.936C461.834 20.312 461.738 66.872 461.162 72.248C458.666 72.728 450.794 72.632 447.338 72.248ZM486.314 72.248C486.41 69.464 486.41 30.584 486.314 27.416C484.49 27.32 468.17 27.32 466.154 27.416C465.77 23.672 465.77 18.488 466.154 14.936C470.954 14.648 496.49 14.744 500.138 14.936C500.81 20.312 500.714 66.872 500.138 72.248C497.642 72.728 489.77 72.632 486.314 72.248ZM423.818 95.576C423.434 92.12 423.434 86.84 423.818 83.096C443.786 82.712 497.354 82.904 506.378 83.096C506.762 86.648 506.762 91.544 506.378 95.576C498.122 96.152 435.146 95.96 423.818 95.576ZM590.466 61.112C582.594 61.496 526.818 61.4 517.41 61.112C516.834 49.88 516.93 25.112 517.41 13.976C526.722 13.496 578.946 13.688 588.546 13.976C588.93 17.624 588.93 22.712 588.546 26.36C581.826 26.552 539.49 26.552 532.29 26.36C532.29 27.512 532.29 29.432 532.194 31.544C544.77 31.448 577.986 31.544 585.666 31.544C586.05 35.192 585.954 40.088 585.666 43.736C578.274 43.928 544.77 43.832 532.194 43.736C532.29 45.944 532.29 47.672 532.29 48.824C539.874 48.824 583.362 48.728 590.466 48.824C590.754 52.568 590.754 58.04 590.466 61.112ZM594.69 66.968C595.074 70.52 595.074 75.416 594.69 79.448C591.042 79.736 576.738 79.832 560.898 79.832C560.898 86.456 560.898 94.712 560.802 98.36C557.634 98.552 549.954 98.552 546.114 98.36C546.018 95.192 545.922 86.744 545.922 79.832C530.85 79.736 516.93 79.64 512.13 79.448C511.746 75.992 511.746 70.712 512.13 66.968C532.098 66.584 585.666 66.776 594.69 66.968Z" fill="#334155"/>
</svg>
